X:2908
T:Chattering Magpie, The
R:reel
D:Paul McGrattan: The Frost Is All Over
D:Noel Hill & Tony McMahon: \'I gCnoc na Gra\'i
Z:id:hn-reel-306
M:C|
K:G
BGAF DGGA|B2ge fdcA|BGAF DG~G2|1 FGAB c2dc:|2 FGAB c2Bc||
dggf g2bg|dg~g2 fgaf|dggf g2ga|bgag fdcA|
dggf g2bg|dg~g2 fgag|bgaf g2ga|bgag fdcA||
"Variations:"
|:BGAF D2GA|Bdge fdcA|BGAF DG~G2|1 FGAB c2dc:|2 FGAB c2Bc||
dggf ~g3f|dg~g2 dgag|dggf ~g3f|gbag fdcA|
dggf gagf|dg~g2 dgag|bgaf g2dg|gbag fdcA||


